X:1
T:Title
%%score { 1 | 2 }
L:1/8
Q:1/4=100
M:4/4
K:G
V:1 treble nm="Grand Piano"
V:2 treble 
V:1
 d4 e4 | d2 c>B [Fc]4 | [Fc]4 [Fd]4 | [EFc]2 [DFB]>[CFA] [DGB]4 | [G,DG]2 [G,DG]>[DA] [DB]4 | %5
w: Henry~Barraclough *|||||
 [EA]2 [EA]>[EB] [Ec]4 | [Gd]2 [Ec]>[DB] [DA]2 [DFB]>[CA] | [G,B,G]8 |] %8
w: |||
V:2
 [G,B,G]4 [G,CG]4 | [G,B,G]2 [G,EG]>[G,DG][K:bass] [D,D]4 | [D,A,]4 [D,A,]4 | D,2 D,>D, G,4 | %4
 B,,2 B,,>[A,,F,] [G,,G,]4 | [C,G,]2 [C,A,]>[B,,^G,] [A,,A,]4 | %6
 [B,,G,]2 [C,G,]>[G,,G,] [D,F,]2 D,>D, | G,,8 |] %8

